!!!SOCIAL_FUNCTION:	war songs
!!!PDT:	1939
!!!OTL: No_100_Song_on_the_Way_to_War.krn
!!!LANG: Non-Tone
!!!LING_GROUP: Wakashan
!!!REG: Pacific Northwest
**kern
*staff1
=1-
*clefF4
*k[f#c#g#d#]
*M3/4
2r
8r
8G#\
=2
8G#\L
8F#\J
8E\
8r
4G#\
=3||
*M2/4
4.cn\
8A\
=4
8A\
8r
4cn\
=5
4..B\
16A\
=6
8A\
8r
8cn\L
8B\J
=7
4.A\
8G#\
=8
8G#\
16r
16A\
8B\L
8A\J
=9
[2G#\
=10
8G#\]
8r
4F#\
=11||
*M3/4
2G#\
8F#\
8r
=12
4A\
4G#\
8F#\L
8G#\J
=13||
*M2/4
4F#\
8r
8A\
=14
4..A\
16G#\
=15
8G#\
8r
4F#\
=16
4.G#\
8A\
=17
8G#\
8r
4F#\
=18
4.G#\
8A\
=19||
*M5/8
4G#\
4r
8A\
=20||
*M3/4
8A\L
8G#\J
8F#\
8r
4G#\
=21||
*M2/4
8A\L
8A\J
8A\L
8G#\J
=22
4A\
4r
=23
8A\L
8G#\J
8A\L
8G#\J
=24
8F#\
8r
4A\
=25
2cn\
=26
8B\
8r
4A\
=27
2B\
=28||
*M3/4
4B\
4r
8B\L
8B\J
=29
8cn\L
8B\J
8A\
8r
4E\
=30||
*M2/4
2B\
=31
8cn\
8r
8.B\L
16A\Jk
=32
2A\
=33
4r
8A\L
8B\J
=34
[2G#\
=35
4G#\]
4r
==
*-
